symbols/shop/marketplace.svg

<?xml version="1.0" encoding="UTF-8" standalone="no"?>
<svg
   xmlns:dc="http://purl.org/dc/elements/1.1/"
   xmlns:cc="http://creativecommons.org/ns#"
   xmlns:rdf="http://www.w3.org/1999/02/22-rdf-syntax-ns#"
   xmlns:svg="http://www.w3.org/2000/svg"
   xmlns="http://www.w3.org/2000/svg"
   id="svg2"
   viewBox="0 0 14 14"
   height="14"
   width="14"
   version="1.1">
  <metadata
     id="metadata8">
    <rdf:RDF>
      <cc:Work
         rdf:about="">
        <dc:format>image/svg+xml</dc:format>
        <dc:type
           rdf:resource="http://purl.org/dc/dcmitype/StillImage" />
        <dc:title></dc:title>
      </cc:Work>
    </rdf:RDF>
  </metadata>
  <defs
     id="defs6" />
  <rect
     style="fill:none;stroke:none;visibility:hidden"
     id="canvas"
     y="0"
     x="0"
     height="14"
     width="14" />
  <path
     id="path4156"
     d="M 0 0 L 0 1 L 0 2 A 1.9999936 1.9999943 0 0 0 2 4 A 1.9999936 1.9999943 0 0 0 4 2 L 5 2 A 1.9999936 1.9999943 0 0 0 7 4 A 1.9999936 1.9999943 0 0 0 9 2 L 10 2 A 1.9999936 1.9999943 0 0 0 12 4 A 1.9999936 1.9999943 0 0 0 14 2 L 14 1 L 14 0 L 12 0 L 0 0 z "
     style="opacity:1;fill:#000000;fill-opacity:1;stroke:#000000;stroke-width:0;stroke-linecap:square;stroke-linejoin:round;stroke-miterlimit:4;stroke-dasharray:none;stroke-opacity:1" />
  <path
     id="path4360"
     d="M 0 5 L 0 9 L 0 11 L 0 14 L 2 14 L 2 11 L 12 11 L 12 14 L 14 14 L 14 11 L 14 9 L 14 5 L 12 5 L 12 9 L 2 9 L 2 5 L 0 5 z "
     style="color:#000000;font-style:normal;font-variant:normal;font-weight:normal;font-stretch:normal;font-size:medium;line-height:normal;font-family:sans-serif;text-indent:0;text-align:start;text-decoration:none;text-decoration-line:none;text-decoration-style:solid;text-decoration-color:#000000;letter-spacing:normal;word-spacing:normal;text-transform:none;direction:ltr;block-progression:tb;writing-mode:lr-tb;baseline-shift:baseline;text-anchor:start;white-space:normal;clip-rule:nonzero;display:inline;overflow:visible;visibility:visible;opacity:1;isolation:auto;mix-blend-mode:normal;color-interpolation:sRGB;color-interpolation-filters:linearRGB;solid-color:#000000;solid-opacity:1;fill:#000000;fill-opacity:1;fill-rule:evenodd;stroke:none;stroke-width:2;stroke-linecap:butt;stroke-linejoin:miter;stroke-miterlimit:4;stroke-dasharray:none;stroke-dashoffset:0;stroke-opacity:1;color-rendering:auto;image-rendering:auto;shape-rendering:auto;text-rendering:auto;enable-background:accumulate" />
</svg>

<?xml version="1.0" encoding="UTF-8"?>
<svg version="1.1" width="14" height="14" viewBox="0 0 14 14" xmlns="http://www.w3.org/2000/svg">
  <path d="m0 0v1 1a2 2 0 0 0 2 2 2 2 0 0 0 2-2h1a2 2 0 0 0 2 2 2 2 0 0 0 2-2h1a2 2 0 0 0 2 2 2 2 0 0 0 2-2v-1-1h-2-12z"/>
  <path d="m0 5v4 2 3h2v-3h10v3h2v-3-2-4h-2v4h-10v-4h-2z"/>
</svg>
